X: 2
T: The Man Of The House
R: reel
M: 4/4
L: 1/8
K: Edor
E2BE GABG|E2BG AFDB|E2BE GABe|dBBA BEED|
E2BE GABG|E2BG AFD2|EBBA GABc|dBcA BEE2||
efge f2af|gfed edBd|efge fedB|e2BA BEE2|
efge f2af|gfed edBd|bgaf gefd|e2BA GEFD||


Tune 222	Setting 27823

